X: 14583
T: Gan Ainm
R: jig
M: 6/8
K: Eminor
|:B|e2 e BcB|c2 B A2 G|F2 E B2 B|E3- E2:|
|:G|F2 E ^D2 E|F2 G A2 F|G2 A B2 c|B3 e3|
d2 c B2 A|G2 A B2 c|B2 A dcd|E3- E2:|

